packages/app/src/assets/external-link.svg

<svg focusable="false" x="0px" y="0px" width="24px" height="24px" viewBox="0 0 24 24" style="enable-background:new 0 0 24 24;" xml:space="preserve">
<g>
			<path  fill="currentColor" d="M16,20H4V8h6V5H2.1C1.5,5,1,5.5,1,6.1v15.8C1,22.5,1.5,23,2.1,23h15.8c0.6,0,1.1-0.5,1.1-1.1V14h-3V20z M21.6,2.4
				c-0.3-0.3-0.6-0.4-1-0.3L12.2,3c-0.6,0.1-1.1,0.6-1.1,1.2c0,0.6,0.5,1.1,1.1,1.2l3.7,0.3l-4.7,4.7c-0.8,0.8-0.4,1.6,0.2,2.2
				c0.6,0.6,1.4,1,2.2,0.2l4.7-4.7l0.3,3.7c0.1,0.6,0.6,1.1,1.2,1.1c0,0,0,0,0,0c0.6,0,1.1-0.5,1.2-1.1l0.9-8.4
				C22,3,21.8,2.7,21.6,2.4z"/>
</g>
</svg>

<svg width="24" height="24" viewBox="0 0 24 24" fill="currentColor" xmlns="http://www.w3.org/2000/svg" focusable="false">
	<path d="M16 20H4V8H10V5H2.1C1.5 5 1 5.5 1 6.1V21.9C1 22.5 1.5 23 2.1 23H17.9C18.5 23 19 22.5 19 21.9V14H16V20ZM21.6 2.4C21.3 2.1 21 2 20.6 2.1L12.2 3C11.6 3.1 11.1 3.6 11.1 4.2C11.1 4.8 11.6 5.3 12.2 5.4L15.9 5.7L11.2 10.4C10.4 11.2 10.8 12 11.4 12.6C12 13.2 12.8 13.6 13.6 12.8L18.3 8.1L18.6 11.8C18.7 12.4 19.2 12.9 19.8 12.9C20.4 12.9 20.9 12.4 21 11.8L21.9 3.4C22 3 21.8 2.7 21.6 2.4Z" fill="currentColor" />
</svg>
